Sources/FrostedUI/Resources/Icons.xcassets/play16.imageset/play-16.svg

<svg width="16" height="16" viewBox="0 0 16 16" fill="none" xmlns="http://www.w3.org/2000/svg" data-fui-icon="true">
  <path
    d="M3.08301 3.11783C3.08308 1.46708 4.91178 0.471607 6.29785 1.36783L13.8438 6.25064C15.1125 7.07156 15.1124 8.92771 13.8438 9.74869L6.29785 14.6315C4.91175 15.528 3.0831 14.5333 3.08301 12.8825V3.11783ZM5.4834 2.62759C5.09533 2.37672 4.58308 2.65567 4.58301 3.11783V12.8825C4.5831 13.3446 5.09531 13.6227 5.4834 13.3717L13.0293 8.4899C13.3843 8.26008 13.3841 7.74036 13.0293 7.51041L5.4834 2.62759Z"
    fill="currentColor"
  />
</svg>

<svg xmlns="http://www.w3.org/2000/svg" width="16" height="16" fill="none" data-fui-icon="true" viewBox="0 0 16 16"><path fill="currentColor" d="M3.083 3.118c0-1.65 1.829-2.646 3.215-1.75l7.546 4.883a2.083 2.083 0 0 1 0 3.498l-7.546 4.883c-1.386.896-3.215-.099-3.215-1.75zm2.4-.49a.584.584 0 0 0-.9.49v9.765c0 .462.512.74.9.489L13.03 8.49a.584.584 0 0 0 0-.98z"/></svg>
